elements/rpg-character/lib/face/5.svg

<svg xmlns="http://www.w3.org/2000/svg" fill="none" width="113" height="142" viewBox="0 0 113 142"><path d="M48 72h-5v-5h5v5h10v-5h5v5h-5v5H48v-5Z" fill="#000"/></svg>

<svg width="113" height="142" viewBox="0 0 113 142" fill="none" xmlns="http://www.w3.org/2000/svg">
<path d="M48 72H43V67H48V72H58V67H63V72H58V77H48V72Z" fill="black"/>
</svg>
